public/images/hashed/1cf87b0e0ff0aa42ebbe832183656076.svg

<?xml version="1.0" encoding="UTF-8"?>
<svg width="80px" height="80px" viewBox="0 0 80 80" version="1.1" xmlns="http://www.w3.org/2000/svg" xmlns:xlink="http://www.w3.org/1999/xlink">
    <!-- Generator: Sketch 64 (93537) - https://sketch.com -->
    <title>Icon-Architecture/64/Arch_AWS-Direct-Connect_64</title>
    <desc>Created with Sketch.</desc>
    <defs>
        <linearGradient x1="0%" y1="100%" x2="100%" y2="0%" id="linearGradient-1">
            <stop stop-color="#4D27A8" offset="0%"></stop>
            <stop stop-color="#A166FF" offset="100%"></stop>
        </linearGradient>
    </defs>
    <g id="Icon-Architecture/64/Arch_AWS-Direct-Connect_64" stroke="none" stroke-width="1" fill="none" fill-rule="evenodd">
        <g id="Icon-Architecture-BG/64/Networking-Content-Delivery" fill="url(#linearGradient-1)">
            <rect id="Rectangle" x="0" y="0" width="80" height="80"></rect>
        </g>
        <path d="M29.9703807,60.6603975 L47.8307162,60.6603975 L47.8307162,54.7873151 C47.8307162,54.2701317 47.2644836,53.8339771 46.5942083,53.8339771 L31.2058881,53.8339771 C30.5356128,53.8339771 29.9703807,54.2701317 29.9703807,54.7873151 L29.9703807,60.6603975 Z M53.1418976,63.9945798 L53.1418976,67.6748847 L53.1418976,68 L51.1410758,68 L51.1410758,67.6748847 L51.1410758,63.9945798 C51.1410758,63.2093013 50.683888,62.661107 50.2737196,62.661107 L27.5273773,62.661107 C27.1162084,62.661107 26.6600211,63.2093013 26.6600211,63.9945798 L26.6600211,67.6748847 L26.6600211,68 L24.6591993,68 L24.6591993,67.6748847 L24.6591993,63.9945798 C24.6591993,62.1569282 25.9467281,60.6603975 27.5273773,60.6603975 L27.9695589,60.6603975 L27.9695589,54.7873151 C27.9695589,53.1587376 29.4211551,51.8332676 31.2058881,51.8332676 L46.5942083,51.8332676 C48.3789414,51.8332676 49.831538,53.1587376 49.831538,54.7873151 L49.831538,60.6603975 L50.2737196,60.6603975 C51.8553692,60.6603975 53.1418976,62.1569282 53.1418976,63.9945798 L53.1418976,63.9945798 Z M45.5207675,38.5935732 C46.7942905,38.5935732 47.8307162,37.5572057 47.8307162,36.2837541 C47.8307162,35.0103026 46.7942905,33.9739351 45.5207675,33.9739351 C44.2472444,33.9739351 43.2108187,35.0103026 43.2108187,36.2837541 C43.2108187,37.5572057 44.2472444,38.5935732 45.5207675,38.5935732 L45.5207675,38.5935732 Z M44.5203566,50.6278402 L44.5203566,40.4652368 C42.6255784,40.0110758 41.209997,38.3154746 41.209997,36.2837541 C41.209997,33.9069114 43.1437912,31.9732257 45.5207675,31.9732257 C47.8977437,31.9732257 49.831538,33.9069114 49.831538,36.2837541 C49.831538,38.3154746 48.4149561,40.0110758 46.5211783,40.4652368 L46.5211783,50.6278402 L44.5203566,50.6278402 Z M41.1379674,28.5610158 C41.1379674,27.286564 40.1025421,26.2511968 38.8280187,26.2511968 C37.5544956,26.2511968 36.5190703,27.286564 36.5190703,28.5610158 C36.5190703,29.8344674 37.5544956,30.8698345 38.8280187,30.8698345 C40.1025421,30.8698345 41.1379674,29.8344674 41.1379674,28.5610158 L41.1379674,28.5610158 Z M43.1387891,28.5610158 C43.1387891,30.5657267 41.7572217,32.2393201 39.9014595,32.7194903 L39.9014595,50.6278402 L37.9006378,50.6278402 L37.9006378,32.7645063 C35.9688443,32.3383552 34.5182486,30.6177451 34.5182486,28.5610158 C34.5182486,26.1841731 36.4520428,24.2504874 38.8280187,24.2504874 C41.2049949,24.2504874 43.1387891,26.1841731 43.1387891,28.5610158 L43.1387891,28.5610158 Z M32.2803294,33.9739351 C31.005806,33.9739351 29.9703807,35.0103026 29.9703807,36.2837541 C29.9703807,37.5572057 31.005806,38.5935732 32.2803294,38.5935732 C33.5538525,38.5935732 34.5892777,37.5572057 34.5892777,36.2837541 C34.5892777,35.0103026 33.5538525,33.9739351 32.2803294,33.9739351 L32.2803294,33.9739351 Z M32.2803294,31.9732257 C34.6573057,31.9732257 36.5900995,33.9069114 36.5900995,36.2837541 C36.5900995,38.3154746 35.1735177,40.0110758 33.2807403,40.4652368 L33.2807403,50.6278402 L31.2799185,50.6278402 L31.2799185,40.4652368 C29.3861407,40.0110758 27.9695589,38.3154746 27.9695589,36.2837541 C27.9695589,33.9069114 29.9033532,31.9732257 32.2803294,31.9732257 L32.2803294,31.9732257 Z M68,37.3661379 C68,45.0188514 62.190614,47.7458183 56.7533809,47.7458183 L48.9371706,47.7458183 L48.9371706,45.7451089 L56.7533809,45.7451089 C58.9222716,45.7451089 65.9991782,45.1408947 65.9991782,37.3661379 C65.9991782,31.7401431 61.5923683,29.675411 57.8968505,28.9341481 C57.4506672,28.8441162 57.1215321,28.4659821 57.094521,28.0118211 C56.8324133,23.5722469 54.2383479,21.9976886 52.0964682,21.9976886 C50.6478732,21.9976886 49.2893153,22.6879334 48.3699377,23.8933608 C48.1488468,24.1834637 47.7856977,24.3265144 47.4245494,24.2744959 C47.0644015,24.2204768 46.761277,23.9733892 46.6352252,23.6312679 C46.0009647,21.9066564 44.8755024,19.4948012 43.1167801,17.7921975 C39.2351859,14.0188595 33.9240045,12.9944963 28.9039427,15.0512256 C24.8072601,16.7288204 21.4738911,21.8556383 21.4738911,26.4792777 C21.4738911,26.9884583 21.5049038,27.4996395 21.5669293,27.9978161 C21.6289547,28.5009946 21.3048216,28.9721616 20.8116191,29.0922042 C18.763778,29.5923815 14.0008218,31.3940204 14.0008218,37.2881103 C14.0008218,37.493183 14.0118263,37.6992561 14.0228308,37.9053291 C14.2649302,42.2268614 18.3316005,45.7451089 23.0865534,45.7451089 L28.8369152,45.7451089 L28.8369152,47.7458183 L23.0865534,47.7458183 C17.2881719,47.7458183 12.3251335,43.3802704 12.0250103,38.0143678 C12.0110045,37.7692809 12,37.5281954 12,37.2881103 C12,32.4924098 14.7851439,28.8421155 19.5010808,27.3795969 C19.4830734,27.0804909 19.4730693,26.7793841 19.4730693,26.4792777 C19.4730693,21.6975822 22.7164014,15.4223572 28.1456312,13.199569 C33.9240045,10.8317294 40.0425175,12.0131484 44.5093521,16.3556881 C46.0669918,17.8622223 47.1754471,19.8029104 47.9257552,21.4915092 C49.1072405,20.5281676 50.5638387,19.9969792 52.0964682,19.9969792 C55.1907391,19.9969792 58.4430748,22.2107642 59.025314,27.1335097 C64.8206942,28.5250031 68,32.1372839 68,37.3661379 L68,37.3661379 Z" id="AWS-Direct-Connect_Icon_64_Squid" fill="#FFFFFF"></path>
    </g>
</svg>

<svg xmlns="http://www.w3.org/2000/svg" width="80" height="80"><defs><linearGradient id="a" x1="0%" x2="100%" y1="100%" y2="0%"><stop offset="0%" stop-color="#4D27A8"/><stop offset="100%" stop-color="#A166FF"/></linearGradient></defs><g fill="none" fill-rule="evenodd"><path fill="url(#a)" d="M0 0h80v80H0z"/><path fill="#FFF" d="M29.97 60.66h17.86v-5.873c0-.517-.566-.953-1.236-.953H31.206c-.67 0-1.236.436-1.236.953v5.873Zm23.172 3.335V68h-2v-4.005c0-.786-.458-1.334-.868-1.334H27.527c-.41 0-.867.548-.867 1.334V68h-2v-4.005c0-1.838 1.287-3.335 2.867-3.335h.443v-5.873c0-1.628 1.451-2.954 3.236-2.954h15.388c1.785 0 3.238 1.326 3.238 2.954v5.873h.442c1.581 0 2.868 1.497 2.868 3.335ZM45.52 38.594a2.313 2.313 0 0 0 2.31-2.31 2.313 2.313 0 0 0-2.31-2.31 2.313 2.313 0 0 0-2.31 2.31 2.313 2.313 0 0 0 2.31 2.31Zm-1 12.034V40.465c-1.895-.454-3.311-2.15-3.311-4.181a4.316 4.316 0 0 1 4.31-4.31 4.316 4.316 0 0 1 4.312 4.31c0 2.031-1.417 3.727-3.31 4.181v10.163H44.52ZM41.137 28.56a2.311 2.311 0 0 0-2.31-2.31 2.311 2.311 0 0 0-2.309 2.31 2.311 2.311 0 0 0 2.309 2.309 2.311 2.311 0 0 0 2.31-2.309Zm2 0c0 2.005-1.38 3.678-3.237 4.158v17.909h-2V32.765a4.313 4.313 0 0 1-3.383-4.204 4.315 4.315 0 0 1 4.31-4.31 4.316 4.316 0 0 1 4.31 4.31ZM32.28 33.974a2.312 2.312 0 0 0-2.31 2.31 2.312 2.312 0 0 0 2.31 2.31 2.312 2.312 0 0 0 2.31-2.31 2.312 2.312 0 0 0-2.31-2.31Zm0-2a4.315 4.315 0 0 1 4.31 4.31c0 2.031-1.416 3.727-3.31 4.181v10.163h-2V40.465c-1.894-.454-3.31-2.15-3.31-4.181a4.316 4.316 0 0 1 4.31-4.31ZM68 37.365c0 7.653-5.81 10.38-11.247 10.38h-7.816v-2h7.816c2.17 0 9.246-.605 9.246-8.38 0-5.626-4.407-7.69-8.102-8.432a1.001 1.001 0 0 1-.802-.922c-.263-4.44-2.857-6.014-4.999-6.014-1.448 0-2.807.69-3.726 1.895a1 1 0 0 1-1.735-.262c-.634-1.724-1.76-4.136-3.518-5.839-3.882-3.773-9.193-4.798-14.213-2.74-4.097 1.677-7.43 6.804-7.43 11.427 0 .51.03 1.02.093 1.519a1 1 0 0 1-.755 1.094c-2.048.5-6.811 2.302-6.811 8.196 0 .205.01.411.022.617.242 4.322 4.309 7.84 9.064 7.84h5.75v2h-5.75c-5.799 0-10.762-4.365-11.062-9.73a12.734 12.734 0 0 1-.025-.727c0-4.796 2.785-8.446 7.501-9.908-.018-.3-.028-.6-.028-.9 0-4.782 3.243-11.058 8.673-13.28 5.778-2.368 11.897-1.187 16.363 3.156 1.558 1.506 2.666 3.447 3.417 5.136a6.573 6.573 0 0 1 4.17-1.495c3.095 0 6.347 2.214 6.93 7.137C64.82 28.525 68 32.137 68 37.366Z"/></g></svg>
